src/svg/com.netflix.Netflix.svg

<?xml version="1.0" encoding="UTF-8" standalone="no"?>
<!-- Created with Inkscape (http://www.inkscape.org/) -->

<svg
   xmlns:dc="http://purl.org/dc/elements/1.1/"
   xmlns:cc="http://creativecommons.org/ns#"
   xmlns:rdf="http://www.w3.org/1999/02/22-rdf-syntax-ns#"
   xmlns:svg="http://www.w3.org/2000/svg"
   xmlns="http://www.w3.org/2000/svg"
   xmlns:xlink="http://www.w3.org/1999/xlink"
   xmlns:sodipodi="http://sodipodi.sourceforge.net/DTD/sodipodi-0.dtd"
   xmlns:inkscape="http://www.inkscape.org/namespaces/inkscape"
   width="300"
   height="300"
   viewBox="0 0 109.374 109.374"
   version="1.1"
   id="svg8"
   inkscape:version="0.92.3 (2405546, 2018-03-11)"
   sodipodi:docname="com.netflix.Netflix.svg"
   inkscape:export-filename="C:\Users\Kevin\Documents\workspace\ktheme\src\icons-shadow\com.netflix.Netflix-large.png"
   inkscape:export-xdpi="96"
   inkscape:export-ydpi="96">
  <defs
     id="defs2">
    <linearGradient
       inkscape:collect="always"
       id="linearGradient853">
      <stop
         style="stop-color:#1d3179;stop-opacity:0"
         offset="0"
         id="stop849" />
      <stop
         style="stop-color:#791d1d;stop-opacity:0.60784316"
         offset="1"
         id="stop851" />
    </linearGradient>
    <filter
       style="color-interpolation-filters:sRGB;"
       inkscape:label="Drop Shadow"
       id="filter901">
      <feFlood
         flood-opacity="0.498039"
         flood-color="rgb(0,0,0)"
         result="flood"
         id="feFlood891" />
      <feComposite
         in="flood"
         in2="SourceGraphic"
         operator="in"
         result="composite1"
         id="feComposite893" />
      <feGaussianBlur
         in="composite1"
         stdDeviation="1"
         result="blur"
         id="feGaussianBlur895" />
      <feOffset
         dx="0"
         dy="0"
         result="offset"
         id="feOffset897" />
      <feComposite
         in="SourceGraphic"
         in2="offset"
         operator="over"
         result="composite2"
         id="feComposite899" />
    </filter>
    <filter
       style="color-interpolation-filters:sRGB;"
       inkscape:label="Drop Shadow"
       id="filter949">
      <feFlood
         flood-opacity="0.498039"
         flood-color="rgb(0,0,0)"
         result="flood"
         id="feFlood939" />
      <feComposite
         in="flood"
         in2="SourceGraphic"
         operator="in"
         result="composite1"
         id="feComposite941" />
      <feGaussianBlur
         in="composite1"
         stdDeviation="0.5"
         result="blur"
         id="feGaussianBlur943" />
      <feOffset
         dx="0"
         dy="0"
         result="offset"
         id="feOffset945" />
      <feComposite
         in="SourceGraphic"
         in2="offset"
         operator="over"
         result="composite2"
         id="feComposite947" />
    </filter>
    <linearGradient
       inkscape:collect="always"
       xlink:href="#linearGradient853"
       id="linearGradient855"
       x1="0"
       y1="0"
       x2="109.374"
       y2="109.374"
       gradientUnits="userSpaceOnUse" />
  </defs>
  <sodipodi:namedview
     id="base"
     pagecolor="#ffffff"
     bordercolor="#666666"
     borderopacity="1.0"
     inkscape:pageopacity="0.0"
     inkscape:pageshadow="2"
     inkscape:zoom="1.979899"
     inkscape:cx="150.05101"
     inkscape:cy="151.87949"
     inkscape:document-units="px"
     inkscape:current-layer="layer2"
     showgrid="false"
     units="px"
     inkscape:pagecheckerboard="true"
     objecttolerance="5"
     gridtolerance="5"
     guidetolerance="5"
     showborder="true"
     inkscape:showpageshadow="false"
     borderlayer="true"
     scale-x="0.36458"
     inkscape:window-width="1920"
     inkscape:window-height="1057"
     inkscape:window-x="-8"
     inkscape:window-y="-8"
     inkscape:window-maximized="1"
     showguides="true"
     inkscape:guide-bbox="true">
    <sodipodi:guide
       position="0,0"
       orientation="1,0"
       id="guide4515"
       inkscape:locked="false"
       inkscape:label=""
       inkscape:color="rgb(0,0,255)" />
    <sodipodi:guide
       position="0,109.374"
       orientation="0,1"
       id="guide4517"
       inkscape:locked="false"
       inkscape:label=""
       inkscape:color="rgb(0,0,255)" />
    <sodipodi:guide
       position="109.374,0"
       orientation="1,0"
       id="guide4519"
       inkscape:locked="false"
       inkscape:label=""
       inkscape:color="rgb(0,0,255)" />
    <sodipodi:guide
       position="0,0"
       orientation="0,1"
       id="guide4521"
       inkscape:locked="false"
       inkscape:label=""
       inkscape:color="rgb(0,0,255)" />
    <sodipodi:guide
       position="0,82.0305"
       orientation="0,1"
       id="guide4528"
       inkscape:locked="false"
       inkscape:label=""
       inkscape:color="rgb(0,0,255)" />
    <sodipodi:guide
       position="27.3435,0"
       orientation="1,0"
       id="guide4530"
       inkscape:locked="false"
       inkscape:label=""
       inkscape:color="rgb(0,0,255)" />
    <sodipodi:guide
       position="0,27.3435"
       orientation="0,1"
       id="guide4532"
       inkscape:locked="false"
       inkscape:label=""
       inkscape:color="rgb(0,0,255)" />
    <sodipodi:guide
       position="82.0305,0"
       orientation="1,0"
       id="guide4534"
       inkscape:locked="false"
       inkscape:label=""
       inkscape:color="rgb(0,0,255)" />
    <sodipodi:guide
       position="54.687,0"
       orientation="1,0"
       id="guide4536"
       inkscape:locked="false"
       inkscape:label=""
       inkscape:color="rgb(0,0,255)" />
    <sodipodi:guide
       position="0,54.687"
       orientation="0,1"
       id="guide4538"
       inkscape:locked="false"
       inkscape:label=""
       inkscape:color="rgb(0,0,255)" />
    <sodipodi:guide
       position="30.9893,0"
       orientation="1,0"
       id="guide860"
       inkscape:locked="false"
       inkscape:label=""
       inkscape:color="rgb(0,0,255)" />
    <sodipodi:guide
       position="78.3847,0"
       orientation="1,0"
       id="guide862"
       inkscape:locked="false"
       inkscape:label=""
       inkscape:color="rgb(0,0,255)" />
    <sodipodi:guide
       position="0,30.9893"
       orientation="0,1"
       id="guide866"
       inkscape:locked="false"
       inkscape:label=""
       inkscape:color="rgb(0,0,255)" />
    <sodipodi:guide
       position="0,78.3847"
       orientation="0,1"
       id="guide868"
       inkscape:locked="false"
       inkscape:label=""
       inkscape:color="rgb(0,0,255)" />
    <sodipodi:guide
       position="0,66.53585"
       orientation="0,1"
       id="guide870"
       inkscape:locked="false"
       inkscape:label=""
       inkscape:color="rgb(0,0,255)" />
    <sodipodi:guide
       position="0,42.83815"
       orientation="0,1"
       id="guide872"
       inkscape:locked="false"
       inkscape:label=""
       inkscape:color="rgb(0,0,255)" />
    <sodipodi:guide
       position="42.83815,0"
       orientation="1,0"
       id="guide874"
       inkscape:locked="false"
       inkscape:label=""
       inkscape:color="rgb(0,0,255)" />
    <sodipodi:guide
       position="66.53585,0"
       orientation="1,0"
       id="guide876"
       inkscape:locked="false"
       inkscape:label=""
       inkscape:color="rgb(0,0,255)" />
  </sodipodi:namedview>
  <metadata
     id="metadata5">
    <rdf:RDF>
      <cc:Work
         rdf:about="">
        <dc:format>image/svg+xml</dc:format>
        <dc:type
           rdf:resource="http://purl.org/dc/dcmitype/StillImage" />
        <dc:title />
      </cc:Work>
    </rdf:RDF>
  </metadata>
  <g
     inkscape:label="bg"
     inkscape:groupmode="layer"
     id="g4586"
     transform="translate(0,-217.62498)"
     style="display:inline"
     sodipodi:insensitive="true">
    <rect
       style="fill:#ff0000;stroke-width:0.36458001"
       id="rect851"
       width="109.374"
       height="109.374"
       x="0"
       y="217.62498"
       inkscape:export-filename="C:\Users\Kevin\Documents\workspace\ktheme\src\icons\com.netflix.Netflix-large.png"
       inkscape:export-xdpi="96"
       inkscape:export-ydpi="96" />
  </g>
  <g
     inkscape:groupmode="layer"
     id="layer2"
     inkscape:label="shadow"
     sodipodi:insensitive="true">
    <rect
       style="fill:url(#linearGradient855);fill-opacity:1;stroke:none;stroke-width:1.96982574;stroke-miterlimit:4;stroke-dasharray:7.87930278, 7.87930278;stroke-dashoffset:9.72539997;stroke-opacity:1"
       id="rect847"
       width="109.374"
       height="109.374"
       x="0"
       y="0" />
  </g>
  <g
     inkscape:groupmode="layer"
     id="layer1"
     inkscape:label="icon"
     sodipodi:insensitive="true">
    <path
       style="fill:#ffffff;fill-opacity:1;stroke:none;stroke-width:2;stroke-linecap:round;stroke-linejoin:round;stroke-miterlimit:4;stroke-dasharray:12, 12;stroke-dashoffset:12;stroke-opacity:1;filter:url(#filter901)"
       d="m 150,75 a 75,75 0 0 0 -75,75 75,75 0 0 0 75,75 75,75 0 0 0 75,-75 75,75 0 0 0 -75,-75 z m 0,10 a 65.000001,65.000001 0 0 1 65,65 65.000001,65.000001 0 0 1 -65,65 65.000001,65.000001 0 0 1 -65,-65 65.000001,65.000001 0 0 1 65,-65 z"
       transform="scale(0.36458)"
       id="path872"
       inkscape:connector-curvature="0" />
    <path
       style="fill:none;stroke:#ffffff;stroke-width:3.64580011;stroke-linecap:butt;stroke-linejoin:round;stroke-miterlimit:4;stroke-dasharray:none;stroke-opacity:1;filter:url(#filter949)"
       d="m 45.75479,42.83815 v 23.6977 L 69.45249,54.687 Z"
       id="path877"
       inkscape:connector-curvature="0" />
  </g>
</svg>

<?xml version="1.0" encoding="UTF-8" standalone="no"?>
<!-- Created with Inkscape (http://www.inkscape.org/) -->

<svg
   xmlns:dc="http://purl.org/dc/elements/1.1/"
   xmlns:cc="http://creativecommons.org/ns#"
   xmlns:rdf="http://www.w3.org/1999/02/22-rdf-syntax-ns#"
   xmlns:svg="http://www.w3.org/2000/svg"
   xmlns="http://www.w3.org/2000/svg"
   xmlns:sodipodi="http://sodipodi.sourceforge.net/DTD/sodipodi-0.dtd"
   xmlns:inkscape="http://www.inkscape.org/namespaces/inkscape"
   width="300"
   height="300"
   viewBox="0 0 109.374 109.374"
   version="1.1"
   id="svg8"
   inkscape:version="0.92.3 (2405546, 2018-03-11)"
   sodipodi:docname="com.netflix.Netflix.svg"
   inkscape:export-filename="C:\Users\Kevin\Documents\workspace\ktheme\src\com.netflix.Netflix.png"
   inkscape:export-xdpi="96"
   inkscape:export-ydpi="96">
  <defs
     id="defs2">
    <filter
       style="color-interpolation-filters:sRGB;"
       inkscape:label="Drop Shadow"
       id="filter901">
      <feFlood
         flood-opacity="0.498039"
         flood-color="rgb(0,0,0)"
         result="flood"
         id="feFlood891" />
      <feComposite
         in="flood"
         in2="SourceGraphic"
         operator="in"
         result="composite1"
         id="feComposite893" />
      <feGaussianBlur
         in="composite1"
         stdDeviation="1"
         result="blur"
         id="feGaussianBlur895" />
      <feOffset
         dx="0"
         dy="0"
         result="offset"
         id="feOffset897" />
      <feComposite
         in="SourceGraphic"
         in2="offset"
         operator="over"
         result="composite2"
         id="feComposite899" />
    </filter>
    <filter
       style="color-interpolation-filters:sRGB;"
       inkscape:label="Drop Shadow"
       id="filter949">
      <feFlood
         flood-opacity="0.498039"
         flood-color="rgb(0,0,0)"
         result="flood"
         id="feFlood939" />
      <feComposite
         in="flood"
         in2="SourceGraphic"
         operator="in"
         result="composite1"
         id="feComposite941" />
      <feGaussianBlur
         in="composite1"
         stdDeviation="0.5"
         result="blur"
         id="feGaussianBlur943" />
      <feOffset
         dx="0"
         dy="0"
         result="offset"
         id="feOffset945" />
      <feComposite
         in="SourceGraphic"
         in2="offset"
         operator="over"
         result="composite2"
         id="feComposite947" />
    </filter>
  </defs>
  <sodipodi:namedview
     id="base"
     pagecolor="#ffffff"
     bordercolor="#666666"
     borderopacity="1.0"
     inkscape:pageopacity="0.0"
     inkscape:pageshadow="2"
     inkscape:zoom="1.979899"
     inkscape:cx="134.89872"
     inkscape:cy="140.76781"
     inkscape:document-units="px"
     inkscape:current-layer="g4586"
     showgrid="false"
     units="px"
     inkscape:pagecheckerboard="true"
     objecttolerance="5"
     gridtolerance="5"
     guidetolerance="5"
     showborder="true"
     inkscape:showpageshadow="false"
     borderlayer="true"
     scale-x="0.36458"
     inkscape:window-width="1920"
     inkscape:window-height="1057"
     inkscape:window-x="-8"
     inkscape:window-y="-8"
     inkscape:window-maximized="1"
     showguides="true"
     inkscape:guide-bbox="true">
    <sodipodi:guide
       position="0,0"
       orientation="1,0"
       id="guide4515"
       inkscape:locked="false"
       inkscape:label=""
       inkscape:color="rgb(0,0,255)" />
    <sodipodi:guide
       position="0,109.374"
       orientation="0,1"
       id="guide4517"
       inkscape:locked="false"
       inkscape:label=""
       inkscape:color="rgb(0,0,255)" />
    <sodipodi:guide
       position="109.374,0"
       orientation="1,0"
       id="guide4519"
       inkscape:locked="false"
       inkscape:label=""
       inkscape:color="rgb(0,0,255)" />
    <sodipodi:guide
       position="0,0"
       orientation="0,1"
       id="guide4521"
       inkscape:locked="false"
       inkscape:label=""
       inkscape:color="rgb(0,0,255)" />
    <sodipodi:guide
       position="0,82.0305"
       orientation="0,1"
       id="guide4528"
       inkscape:locked="false"
       inkscape:label=""
       inkscape:color="rgb(0,0,255)" />
    <sodipodi:guide
       position="27.3435,0"
       orientation="1,0"
       id="guide4530"
       inkscape:locked="false"
       inkscape:label=""
       inkscape:color="rgb(0,0,255)" />
    <sodipodi:guide
       position="0,27.3435"
       orientation="0,1"
       id="guide4532"
       inkscape:locked="false"
       inkscape:label=""
       inkscape:color="rgb(0,0,255)" />
    <sodipodi:guide
       position="82.0305,0"
       orientation="1,0"
       id="guide4534"
       inkscape:locked="false"
       inkscape:label=""
       inkscape:color="rgb(0,0,255)" />
    <sodipodi:guide
       position="54.687,0"
       orientation="1,0"
       id="guide4536"
       inkscape:locked="false"
       inkscape:label=""
       inkscape:color="rgb(0,0,255)" />
    <sodipodi:guide
       position="0,54.687"
       orientation="0,1"
       id="guide4538"
       inkscape:locked="false"
       inkscape:label=""
       inkscape:color="rgb(0,0,255)" />
    <sodipodi:guide
       position="30.9893,0"
       orientation="1,0"
       id="guide860"
       inkscape:locked="false"
       inkscape:label=""
       inkscape:color="rgb(0,0,255)" />
    <sodipodi:guide
       position="78.3847,0"
       orientation="1,0"
       id="guide862"
       inkscape:locked="false"
       inkscape:label=""
       inkscape:color="rgb(0,0,255)" />
    <sodipodi:guide
       position="0,30.9893"
       orientation="0,1"
       id="guide866"
       inkscape:locked="false"
       inkscape:label=""
       inkscape:color="rgb(0,0,255)" />
    <sodipodi:guide
       position="0,78.3847"
       orientation="0,1"
       id="guide868"
       inkscape:locked="false"
       inkscape:label=""
       inkscape:color="rgb(0,0,255)" />
    <sodipodi:guide
       position="0,66.53585"
       orientation="0,1"
       id="guide870"
       inkscape:locked="false"
       inkscape:label=""
       inkscape:color="rgb(0,0,255)" />
    <sodipodi:guide
       position="0,42.83815"
       orientation="0,1"
       id="guide872"
       inkscape:locked="false"
       inkscape:label=""
       inkscape:color="rgb(0,0,255)" />
    <sodipodi:guide
       position="42.83815,0"
       orientation="1,0"
       id="guide874"
       inkscape:locked="false"
       inkscape:label=""
       inkscape:color="rgb(0,0,255)" />
    <sodipodi:guide
       position="66.53585,0"
       orientation="1,0"
       id="guide876"
       inkscape:locked="false"
       inkscape:label=""
       inkscape:color="rgb(0,0,255)" />
  </sodipodi:namedview>
  <metadata
     id="metadata5">
    <rdf:RDF>
      <cc:Work
         rdf:about="">
        <dc:format>image/svg+xml</dc:format>
        <dc:type
           rdf:resource="http://purl.org/dc/dcmitype/StillImage" />
        <dc:title />
      </cc:Work>
    </rdf:RDF>
  </metadata>
  <g
     inkscape:label="bg_red"
     inkscape:groupmode="layer"
     id="g4586"
     transform="translate(0,-217.62498)"
     style="display:inline">
    <rect
       style="fill:#ff0000;stroke-width:0.36458001"
       id="rect851"
       width="109.374"
       height="109.374"
       x="0"
       y="217.62498"
       inkscape:export-filename="C:\Users\Kevin\Documents\workspace\ktheme\src\icons\com.netflix.Netflix-large.png"
       inkscape:export-xdpi="96"
       inkscape:export-ydpi="96" />
  </g>
  <g
     inkscape:groupmode="layer"
     id="layer1"
     inkscape:label="icon">
    <path
       style="fill:#ffffff;fill-opacity:1;stroke:none;stroke-width:2;stroke-linecap:round;stroke-linejoin:round;stroke-miterlimit:4;stroke-dasharray:12, 12;stroke-dashoffset:12;stroke-opacity:1;filter:url(#filter901)"
       d="M 150 75 A 75 75 0 0 0 75 150 A 75 75 0 0 0 150 225 A 75 75 0 0 0 225 150 A 75 75 0 0 0 150 75 z M 150 85 A 65.000001 65.000001 0 0 1 215 150 A 65.000001 65.000001 0 0 1 150 215 A 65.000001 65.000001 0 0 1 85 150 A 65.000001 65.000001 0 0 1 150 85 z "
       transform="scale(0.36458)"
       id="path872" />
    <path
       style="fill:none;stroke:#ffffff;stroke-width:3.64580011;stroke-linecap:butt;stroke-linejoin:round;stroke-miterlimit:4;stroke-dasharray:none;stroke-opacity:1;filter:url(#filter949)"
       d="m 45.75479,42.83815 v 23.6977 L 69.45249,54.687 Z"
       id="path877"
       inkscape:connector-curvature="0" />
  </g>
</svg>
